svg/fluentui-system-icons/ic_fluent_table_freeze_column_and_row_24_filled.svg

<svg width="24" height="24" viewBox="0 0 24 24" fill="none" xmlns="http://www.w3.org/2000/svg">
<path d="M6.25 3C4.45507 3 3 4.45507 3 6.25V17.75C3 19.5449 4.45507 21 6.25 21H14.5V16H9.5L9.5 19.5H6.25C5.2835 19.5 4.5 18.7165 4.5 17.75V6.25C4.5 5.2835 5.2835 4.5 6.25 4.5H17.75C18.7165 4.5 19.5 5.2835 19.5 6.25V9.5H16V14.5H21V6.25C21 4.45507 19.5449 3 17.75 3H6.25ZM16 16V21H17.75C19.5449 21 21 19.5449 21 17.75V16H16ZM14.5 14.5V9.5H9.5L9.5 14.5H14.5Z" fill="#212121"/>
</svg>

<svg xmlns="http://www.w3.org/2000/svg" width="24" height="24"><path d="M6.25 3A3.25 3.25 0 0 0 3 6.25v11.5A3.25 3.25 0 0 0 6.25 21h8.25v-5h-5v3.5H6.25a1.75 1.75 0 0 1-1.75-1.75V6.25c0-.966.784-1.75 1.75-1.75h11.5c.966 0 1.75.784 1.75 1.75V9.5H16v5h5V6.25A3.25 3.25 0 0 0 17.75 3H6.25ZM16 16v5h1.75A3.25 3.25 0 0 0 21 17.75V16h-5Zm-1.5-1.5v-5h-5v5h5Z"/></svg>
